SVG_Azure_All/API Management Power Platform.svg

<?xml version="1.0" encoding="UTF-8" standalone="no"?>
<!-- Generated by Microsoft Visio, SVG Export API Management Power Platform.svg Page-1 -->

<svg
   xmlns:dc="http://purl.org/dc/elements/1.1/"
   xmlns:cc="http://creativecommons.org/ns#"
   xmlns:rdf="http://www.w3.org/1999/02/22-rdf-syntax-ns#"
   xmlns:svg="http://www.w3.org/2000/svg"
   xmlns="http://www.w3.org/2000/svg"
   xmlns:sodipodi="http://sodipodi.sourceforge.net/DTD/sodipodi-0.dtd"
   xmlns:inkscape="http://www.inkscape.org/namespaces/inkscape"
   width="0.78741109in"
   height="0.78731662in"
   viewBox="0 0 56.693583 56.686996"
   xml:space="preserve"
   class="st6"
   version="1.1"
   id="svg55"
   sodipodi:docname="API Management Power Platform.svg"
   style="font-size:12px;overflow:visible;color-interpolation-filters:sRGB;fill:none;fill-rule:evenodd;stroke-linecap:square;stroke-miterlimit:3"
   inkscape:version="0.92.5 (2060ec1f9f, 2020-04-08)"><metadata
   id="metadata59"><rdf:RDF><cc:Work
       rdf:about=""><dc:format>image/svg+xml</dc:format><dc:type
         rdf:resource="http://purl.org/dc/dcmitype/StillImage" /></cc:Work></rdf:RDF></metadata><sodipodi:namedview
   pagecolor="#ffffff"
   bordercolor="#666666"
   borderopacity="1"
   objecttolerance="10"
   gridtolerance="10"
   guidetolerance="10"
   inkscape:pageopacity="0"
   inkscape:pageshadow="2"
   inkscape:window-width="640"
   inkscape:window-height="480"
   id="namedview57"
   showgrid="false"
   inkscape:zoom="1.8231755"
   inkscape:cx="37.795131"
   inkscape:cy="19.363196"
   inkscape:window-x="0"
   inkscape:window-y="0"
   inkscape:window-maximized="0"
   inkscape:current-layer="svg55" />
	<style
   type="text/css"
   id="style2">
	<![CDATA[
		.st1 {fill:url(#grad0-6);stroke:none;stroke-linecap:butt;stroke-width:6.375}
		.st2 {fill:#000000;fill-opacity:0.32;stroke:none;stroke-linecap:butt;stroke-width:6.375}
		.st3 {fill:#000000;fill-opacity:0.24;stroke:none;stroke-linecap:butt;stroke-width:6.375}
		.st4 {fill:url(#grad0-14);stroke:none;stroke-linecap:butt;stroke-width:6.375}
		.st5 {fill:url(#grad0-18);stroke:none;stroke-linecap:butt;stroke-width:6.375}
		.st6 {fill:none;fill-rule:evenodd;font-size:12px;overflow:visible;stroke-linecap:square;stroke-miterlimit:3}
	]]>
	</style>

	<defs
   id="Patterns_And_Gradients">
		<linearGradient
   id="grad0-6"
   x1="0"
   y1="38.477061"
   x2="51.423133"
   y2="38.477061"
   gradientTransform="scale(0.92604237,1.0798642)"
   gradientUnits="userSpaceOnUse">
			<stop
   offset="0"
   stop-color="#742774"
   stop-opacity="1"
   id="stop4" />
			<stop
   offset="1"
   stop-color="#bb35a4"
   stop-opacity="1"
   id="stop6" />
		</linearGradient>
		<linearGradient
   id="grad0-14"
   x1="0.0033310514"
   y1="33.7358"
   x2="45.089949"
   y2="33.7358"
   gradientTransform="scale(0.81193261,1.2316293)"
   gradientUnits="userSpaceOnUse">
			<stop
   offset="0"
   stop-color="#e48cc7"
   stop-opacity="1"
   id="stop9" />
			<stop
   offset="1"
   stop-color="#d467b9"
   stop-opacity="1"
   id="stop11" />
		</linearGradient>
		<linearGradient
   id="grad0-18"
   x1="-0.0038372633"
   y1="68.969197"
   x2="24.615034"
   y2="68.969197"
   gradientTransform="scale(0.96404498,1.037296)"
   gradientUnits="userSpaceOnUse">
			<stop
   offset="0"
   stop-color="#e9a1cb"
   stop-opacity="1"
   id="stop14" />
			<stop
   offset="1"
   stop-color="#e48cc7"
   stop-opacity="1"
   id="stop16" />
		</linearGradient>
	</defs>
	<g
   id="g53"
   transform="translate(-6.3751337,-6.3773)">
		<title
   id="title20">Page-1</title>
		<g
   id="group10240-1"
   transform="translate(6.375,-34.0157)">
			<title
   id="title22">API Management Power Platform</title>
			<g
   id="group10241-2">
				<title
   id="title24">Sheet.10241</title>
				<g
   id="shape10242-3"
   transform="translate(0,-1.157)">
					<title
   id="title26">Sheet.10242</title>
					<path
   d="M 23.81,97.08 0,69.32 23.81,41.55 47.62,69.32 Z"
   class="st1"
   id="path28"
   inkscape:connector-curvature="0"
   style="fill:url(#grad0-6);stroke:none;stroke-width:6.375;stroke-linecap:butt" />
				</g>
				<g
   id="shape10243-7"
   transform="translate(20.0838)">
					<title
   id="title31">Sheet.10243</title>
					<path
   d="M 11.66,41.55 36.61,69.32 11.66,97.08 0.6,84.76 a 2.26772,2.314 0 0 1 0,-3.13 l 9.66,-10.75 a 2.26772,2.314 -180 0 0 0,-3.13 L 0.6,56.99 a 2.26772,2.314 0 0 1 0,-3.12 z"
   class="st2"
   id="path33"
   inkscape:connector-curvature="0"
   style="fill:#000000;fill-opacity:0.31999996;stroke:none;stroke-width:6.375;stroke-linecap:butt" />
				</g>
				<g
   id="shape10244-9"
   transform="translate(20.0838,-0.937169)">
					<title
   id="title36">Sheet.10244</title>
					<path
   d="M 11.66,41.55 36.61,69.32 11.66,97.08 0.6,84.76 a 2.26772,2.314 0 0 1 0,-3.13 l 9.66,-10.75 a 2.26772,2.314 -180 0 0 0,-3.13 L 0.6,57 a 2.26772,2.314 0 0 1 0,-3.13 z"
   class="st3"
   id="path38"
   inkscape:connector-curvature="0"
   style="fill:#000000;fill-opacity:0.23999999;stroke:none;stroke-width:6.375;stroke-linecap:butt" />
				</g>
				<g
   id="shape10245-11"
   transform="translate(20.0838,-1.157)">
					<title
   id="title41">Sheet.10245</title>
					<path
   d="M 11.66,41.55 36.61,69.32 11.66,97.08 0.6,84.76 a 2.26772,2.314 0 0 1 0,-3.13 l 9.66,-10.75 a 2.26772,2.314 -180 0 0 0,-3.13 L 0.6,56.99 a 2.26772,2.314 0 0 1 0,-3.12 z"
   class="st4"
   id="path43"
   inkscape:connector-curvature="0"
   style="fill:url(#grad0-14);stroke:none;stroke-width:6.375;stroke-linecap:butt" />
				</g>
				<g
   id="shape10246-15"
   transform="translate(32.9608,-16.1508)">
					<title
   id="title46">Sheet.10246</title>
					<path
   d="m 9.59,72.29 a 2.26772,2.314 0 0 1 3.34,0 l 10.8,12.02 -10.8,12.02 a 2.26772,2.314 0 0 1 -3.34,0 l -8.7,-9.68 a 3.40157,3.47099 0 0 1 0,-4.69 z"
   class="st5"
   id="path48"
   inkscape:connector-curvature="0"
   style="fill:url(#grad0-18);stroke:none;stroke-width:6.375;stroke-linecap:butt" />
				</g>
			</g>
		</g>
	</g>
</svg>

<?xml version="1.0" encoding="UTF-8" standalone="no"?>
<!DOCTYPE svg PUBLIC "-//W3C//DTD SVG 1.1//EN" "http://www.w3.org/Graphics/SVG/1.1/DTD/svg11.dtd">
<!-- Generated by Microsoft Visio, SVG Export API Management Power Platform.svg Page-1 -->
<svg xmlns="http://www.w3.org/2000/svg" xmlns:xlink="http://www.w3.org/1999/xlink" xmlns:ev="http://www.w3.org/2001/xml-events"
		width="0.964485in" height="1.34838in" viewBox="0 0 69.4429 97.0837" xml:space="preserve" color-interpolation-filters="sRGB"
		class="st6">
	<style type="text/css">
	<![CDATA[
		.st1 {fill:url(#grad0-6);stroke:none;stroke-linecap:butt;stroke-width:6.375}
		.st2 {fill:#000000;fill-opacity:0.32;stroke:none;stroke-linecap:butt;stroke-width:6.375}
		.st3 {fill:#000000;fill-opacity:0.24;stroke:none;stroke-linecap:butt;stroke-width:6.375}
		.st4 {fill:url(#grad0-14);stroke:none;stroke-linecap:butt;stroke-width:6.375}
		.st5 {fill:url(#grad0-18);stroke:none;stroke-linecap:butt;stroke-width:6.375}
		.st6 {fill:none;fill-rule:evenodd;font-size:12px;overflow:visible;stroke-linecap:square;stroke-miterlimit:3}
	]]>
	</style>

	<defs id="Patterns_And_Gradients">
		<linearGradient id="grad0-6" x1="0" y1="0" x2="1" y2="0" gradientTransform="rotate(-115.03978431968 0.5 0.5)">
			<stop offset="0" stop-color="#742774" stop-opacity="1"/>
			<stop offset="1" stop-color="#bb35a4" stop-opacity="1"/>
		</linearGradient>
		<linearGradient id="grad0-14" x1="0" y1="0" x2="1" y2="0" gradientTransform="rotate(54.535327906065 0.5 0.5)">
			<stop offset="0" stop-color="#e48cc7" stop-opacity="1"/>
			<stop offset="1" stop-color="#d467b9" stop-opacity="1"/>
		</linearGradient>
		<linearGradient id="grad0-18" x1="0" y1="0" x2="1" y2="0" gradientTransform="rotate(71.042949528272 0.5 0.5)">
			<stop offset="0" stop-color="#e9a1cb" stop-opacity="1"/>
			<stop offset="1" stop-color="#e48cc7" stop-opacity="1"/>
		</linearGradient>
	</defs>
	<g>
		<title>Page-1</title>
		<g id="group10009-1" transform="translate(6.375,-34.0157)">
			<title>API Management Power Platform</title>
			<g id="group10010-2">
				<title>Sheet.10010</title>
				<g id="shape10011-3" transform="translate(0,-1.157)">
					<title>Sheet.10011</title>
					<path d="M23.81 97.08 L0 69.32 L23.81 41.55 L47.62 69.32 L23.81 97.08 Z" class="st1"/>
				</g>
				<g id="shape10012-7" transform="translate(20.0838,-2.84217E-13)">
					<title>Sheet.10012</title>
					<path d="M11.66 41.55 L36.61 69.32 L11.66 97.08 L0.6 84.76 A2.26772 2.314 0 0 1 0.6 81.63 L10.26 70.88 A2.26772
								 2.314 -180 0 0 10.26 67.75 L0.6 56.99 A2.26772 2.314 0 0 1 0.6 53.87 L11.66 41.55 Z" class="st2"/>
				</g>
				<g id="shape10013-9" transform="translate(20.0838,-0.937169)">
					<title>Sheet.10013</title>
					<path d="M11.66 41.55 L36.61 69.32 L11.66 97.08 L0.6 84.76 A2.26772 2.314 0 0 1 0.6 81.63 L10.26 70.88 A2.26772
								 2.314 -180 0 0 10.26 67.75 L0.6 57 A2.26772 2.314 0 0 1 0.6 53.87 L11.66 41.55 Z" class="st3"/>
				</g>
				<g id="shape10014-11" transform="translate(20.0838,-1.157)">
					<title>Sheet.10014</title>
					<path d="M11.66 41.55 L36.61 69.32 L11.66 97.08 L0.6 84.76 A2.26772 2.314 0 0 1 0.6 81.63 L10.26 70.88 A2.26772
								 2.314 -180 0 0 10.26 67.75 L0.6 56.99 A2.26772 2.314 0 0 1 0.6 53.87 L11.66 41.55 Z" class="st4"/>
				</g>
				<g id="shape10015-15" transform="translate(32.9608,-16.1508)">
					<title>Sheet.10015</title>
					<path d="M9.59 72.29 A2.26772 2.314 0 0 1 12.93 72.29 L23.73 84.31 L12.93 96.33 A2.26772 2.314 0 0 1 9.59 96.33
								 L0.89 86.65 A3.40157 3.47099 0 0 1 0.89 81.96 L9.59 72.29 Z" class="st5"/>
				</g>
			</g>
		</g>
	</g>
</svg>
